assets/images/subjects/Government.svg

<svg xmlns="http://www.w3.org/2000/svg" viewBox="0 0 186.7 186.7" xmlns:v="https://vecta.io/nano"><path fill="#eef4fb" d="M93.4 13.8c-43.9 0-79.5 35.6-79.5 79.5s35.6 79.5 79.5 79.5 79.5-35.6 79.5-79.5-35.6-79.5-79.5-79.5zM50.2 64.9l43.2-26.3 43.2 26.3c4.3 2.6 3.7 4.8-1.3 4.8H51.5c-5-.1-5.6-2.2-1.3-4.8zm67.9 9.6a1.58 1.58 0 0 1 1.6-1.6h11.2a1.58 1.58 0 1 1 0 3.2v39.2h-11.2V76.1a1.58 1.58 0 0 1-1.6-1.6zm-21.3 0a1.58 1.58 0 0 1 1.6-1.6h11.2a1.58 1.58 0 1 1 0 3.2v39.2H98.4V76.1a1.58 1.58 0 0 1-1.6-1.6zm-21.3 0a1.58 1.58 0 0 1 1.6-1.6h11.2a1.58 1.58 0 1 1 0 3.2v39.2H77.1V76.1a1.58 1.58 0 0 1-1.6-1.6zm-21.3 0a1.58 1.58 0 0 1 1.6-1.6H67a1.58 1.58 0 1 1 0 3.2v39.2H55.8V76.1a1.58 1.58 0 0 1-1.6-1.6zm87.3 58.7H45.2v-6.3L52 118h82.8l6.8 8.9v6.3z"/></svg>

<?xml version="1.0" encoding="utf-8"?>
<!-- Generator: Adobe Illustrator 18.1.1, SVG Export Plug-In . SVG Version: 6.00 Build 0)  -->
<svg version="1.1" id="Layer_4_copy" xmlns="http://www.w3.org/2000/svg" xmlns:xlink="http://www.w3.org/1999/xlink" x="0px"
	 y="0px" viewBox="0 0 186.7 186.7" enable-background="new 0 0 186.7 186.7" xml:space="preserve">
<g>
	<rect x="0" y="0" fill="none" width="186.7" height="186.7"/>
	<path fill="#EEF4FB" d="M93.4,13.8c-43.9,0-79.5,35.6-79.5,79.5c0,43.9,35.6,79.5,79.5,79.5c43.9,0,79.5-35.6,79.5-79.5
		C172.9,49.4,137.3,13.8,93.4,13.8z M50.2,64.9l43.2-26.3l43.2,26.3c0,0,0,0,0,0c4.3,2.6,3.7,4.8-1.3,4.8H51.5
		C46.5,69.6,45.9,67.5,50.2,64.9z M118.1,74.5c0-0.9,0.7-1.6,1.6-1.6h11.2c0.9,0,1.6,0.7,1.6,1.6c0,0.9-0.7,1.6-1.6,1.6v39.2h-11.2
		V76.1C118.8,76.1,118.1,75.4,118.1,74.5z M96.8,74.5c0-0.9,0.7-1.6,1.6-1.6h11.2c0.9,0,1.6,0.7,1.6,1.6c0,0.9-0.7,1.6-1.6,1.6v39.2
		H98.4V76.1C97.5,76.1,96.8,75.4,96.8,74.5z M75.5,74.5c0-0.9,0.7-1.6,1.6-1.6h11.2c0.9,0,1.6,0.7,1.6,1.6c0,0.9-0.7,1.6-1.6,1.6
		v39.2H77.1V76.1C76.2,76.1,75.5,75.4,75.5,74.5z M54.2,74.5c0-0.9,0.7-1.6,1.6-1.6H67c0.9,0,1.6,0.7,1.6,1.6c0,0.9-0.7,1.6-1.6,1.6
		v39.2H55.8V76.1C54.9,76.1,54.2,75.4,54.2,74.5z M141.5,133.2H45.2v-6.3l6.8-8.9h82.8l6.8,8.9V133.2z"/>
</g>
</svg>
